src/images/trading_app/header/trade/ic-trade-active-light.svg

<?xml version="1.0" encoding="UTF-8"?>
<svg width="16px" height="16px" viewBox="0 0 16 16" version="1.1" xmlns="http://www.w3.org/2000/svg" xmlns:xlink="http://www.w3.org/1999/xlink">
    <!-- Generator: Sketch 49 (51002) - http://www.bohemiancoding.com/sketch -->
    <title>icons/system/binary/header/trade/ic-trade-active-light</title>
    <desc>Created with Sketch.</desc>
    <defs></defs>
    <g id="icons/system/binary/header/trade/ic-trade-active-light" stroke="none" stroke-width="1" fill="none" fill-rule="evenodd">
        <g id="icons/active/trade" fill="#2A3052">
            <path d="M1,8 L3,8 C3.55228475,8 4,8.44771525 4,9 L4,16 L0,16 L0,9 C-6.76353751e-17,8.44771525 0.44771525,8 1,8 Z M13,0 L15,0 C15.5522847,-1.01453063e-16 16,0.44771525 16,1 L16,16 L12,16 L12,1 C12,0.44771525 12.4477153,1.01453063e-16 13,0 Z M7,4 L9,4 C9.55228475,4 10,4.44771525 10,5 L10,16 L6,16 L6,5 C6,4.44771525 6.44771525,4 7,4 Z" id="ic-rec-trade"></path>
        </g>
    </g>
</svg>

<svg width="16" height="16" viewBox="0 0 16 16" xmlns="http://www.w3.org/2000/svg"><title>icons/system/binary/header/trade/ic-trade-active-light</title><path d="M1 8h2a1 1 0 0 1 1 1v7H0V9a1 1 0 0 1 1-1zm12-8h2a1 1 0 0 1 1 1v15h-4V1a1 1 0 0 1 1-1zM7 4h2a1 1 0 0 1 1 1v11H6V5a1 1 0 0 1 1-1z" fill="#2A3052" fill-rule="evenodd"/></svg>
